!!!ONB: MCCC : IJB0045_04 : Extracted Monophonic Melody
!!!COM: Brahms, Johannes
!!!OPR: 6 Klavierstücke
!!!OMV: 4
!!!SCT: Op.118
!!!ODT: 1893///
**kern
*staff1
=1
*clefG2
*k[b-e-a-d-]
*A-:
*M2/4
2cc
=2
2cc
=3
4ff
4ff
=4
2g
=5
2cc
=6
2cc
=7
2gg
=8
4r
4ee-
=9
8dd
8cc
12ee-
12ff
12ee-
=10
8dd
8cc
12b-
12cc
12a-
=11
8g
8f
4g[
=12
4g]
4r
=13
2cc
=14
2cc
=15
2ff
=16
2g
=17
12cc
12c
12cc
4d-
=18
12dd
12d
12dd
12e-
12r
12ee-
=19
12g
12gg
12b-
12bb-
12dd-
12aa-
=20
4r
4cc
=21
12ff
12f
12ff
4e-
=22
12dd-
12d-
12dd-
12c
12r
12gg-
=23
12g-
12ff
12f
12cc
12e-
12dd-
=24
12d-
12g
12B-
4a-
=25
12aa-
12a-
12aa-
4b-
=26
12ee
12a-
12ee
12e-
12r
12ccc-
=27
12a
12aa-
12a-
12ee-
12g-
12ee
=28
12e
12b-
12d-
4cc-
=29
12aa
12ee-
12a
12g-
12r
12aa-
=30
12aa
12ee-
12a
12g-
12r
12aa
=31
12gg
12cc
12a
12g
12r
12aa
=32
12gg
12cc
12a
12g
12r
12a
=33
12g
12B-
12r
8r
8g
=34
12f
12A-
12r
8r
8e-
=35
12d-
12F
12r
8r
8c
=36
12c-
12F
12r
4r
=37
4r
8r
8f
=38
12a-
12b-
12cc-
4cc-
=39
12cc-
12cc-
12cc
4cc[
=40
2cc]
=41
2cc
=42
2ff
=43
2g
=44
2cc
=45
2cc
=46
2f
=47
2g
=48
2c[
=49
2c]
=50
2cc[
=51
2cc]
=52
2cc
=53
2C
=54
2dd-
=55
2BB-
=56
2ff
=57
2EE-
=58
4ee-
4dd-
=59
2AA-
=60
4cc
4ee-
=61
2AA-
=62
4a-
4dd-
=63
2AA-
=64
4b-
4g
=65
2AA-
=66
4b-
4e-
=67
2AA-
=68
2cc-
=69
2cc-
=70
2cc-
=71
2cc-
=72
4dd-
4dd-
=73
2dd-
=74
4dd-
4dd-
=75
2dd-
=76
2dd-
=77
2dd-
=78
2dd-
=79
2dd-
=80
2dd-
=81
2dd-
=82
4dd-
4dd-
=83
2dd-
=84
2ee
=85
2dd-
=86
2dd-
=87
2dd-
=88
4dd-
4dd-
=89
2dd-
=90
4dd-
4dd-
=91
2dd-
=92
4dd-
4gg
=93
8ff
8ee
4gg
=94
4cc
4ff
=95
4dd-
4dd-
=96
2dd-
=97
4dd-
4a
=98
4aa-
4aa-
=99
4aa-
4a
=100
8ccc
8ccc
4ccc
=101
8a
8a
4a
=102
8ff
8ff
4ff
=103
12a
12a
12a
4a
=104
8cc-
8cc-
4cc-
=105
12ee
12ee
12ee-
4ff
=106
12ccc
12ccc
12ccc
4ccc
=107
8ff
8bb-
4aa-
=108
8gg
8ff
12aa-
12bb-
12aa-
=109
8gg
8ff
12ee-
12ff
12dd-
=110
8cc
8cc-
4cc
=111
4cc
4cc-
=112
4ff
12ee-
12cc
12ee-
=113
4ff
12ee-
12cc
12ee-
=114
12ff
12ff
12ff
12cc
12a
12cc
=115
16ff
16ff
8ff
4ff
=116
8gg
8aa-
8ff
8cc
=117
8ff
8gg
16f
16aa-
8gg
=118
8ff
8cc
4cc
=119
4d[
4d]
=120
4f
12e-
12c
12e-
=121
4f
12e-
12c
12e-
=122
12f
12f[
12f]
12c
12A
12c
=123
16f
16f
8f[
4f]
=124
8g
8a-
4f
=125
4r
4cc
=126
4r
8b
8cc
=127
8r
8eee
12r
12fff
12ddd-
=128
12bb-
12ff
12dd-
12b-
12g
12d-
=129
4B-
4r
=130
2cc
=131
2cc
=132
4ccc
4ccc
=133
2ccc
=134
2ccc[
=135
4ccc]
4r
==
*-
